svgs/sharp-light/sidebar-flip.svg

<svg xmlns="http://www.w3.org/2000/svg" viewBox="0 0 512 512"><!--! Font Awesome Pro 6.6.0 by @fontawesome - https://fontawesome.com License - https://fontawesome.com/license (Commercial License) Copyright 2024 Fonticons, Inc. --><path d="M32 64l0 384 256 0 0-384L32 64zm448 0L320 64l0 384 160 0 0-384zm0-32l32 0 0 32 0 384 0 32-32 0L32 480 0 480l0-32L0 64 0 32l32 0 448 0zM352 96l96 0 0 32-96 0 0-32zm96 64l0 32-96 0 0-32 96 0zm-96 64l96 0 0 32-96 0 0-32z"/></svg>

<svg xmlns="http://www.w3.org/2000/svg" viewBox="0 0 512 512"><!--! Font Awesome Pro 6.4.0 by @fontawesome - https://fontawesome.com License - https://fontawesome.com/license (Commercial License) Copyright 2023 Fonticons, Inc. --><path d="M32 64V448H288V64H32zm448 0H320V448H480V64zm0-32h32V64 448v32H480 32 0V448 64 32H32 480zM352 96h96v32H352V96zm96 64v32H352V160h96zm-96 64h96v32H352V224z"/></svg>
